X:1
T: Alloa Kirk
C:
R:Strathspey
Q:128
K:G
M:4/4
L:1/16
|:D2|Gd3 d3B A3G EA3|Gd3 d3B d3B g4|bagf g3B A3G EA3|GD3 E3F G4G4|
Gd3 d3B A3G EA3|Gd3 d3B d3B g4|bagf g3B A3G EA3|GD3 B3A G6f2|
g3d gab2 ae3 d3f|g3d gab2 e3g d3g|c3a B3g aA3 A3B|GD3 E3F G4 G2f2|
g3d gab2 ae3 d3f|(3g2a2b2 (3a2g2f2 (3e2f2g2 (3d2c2B2|ca3 Bg3 aA3 A3B|GD3 B3A G4G2:|
